Sweet-Rainbow/icons/glade.svg

<?xml version="1.0" encoding="UTF-8" standalone="no"?>
<!-- Generator: Gravit.io -->

<svg
   xmlns:dc="http://purl.org/dc/elements/1.1/"
   xmlns:cc="http://creativecommons.org/ns#"
   xmlns:rdf="http://www.w3.org/1999/02/22-rdf-syntax-ns#"
   xmlns:svg="http://www.w3.org/2000/svg"
   xmlns="http://www.w3.org/2000/svg"
   xmlns:sodipodi="http://sodipodi.sourceforge.net/DTD/sodipodi-0.dtd"
   xmlns:inkscape="http://www.inkscape.org/namespaces/inkscape"
   style="isolation:isolate"
   viewBox="0 0 36 36"
   width="48"
   height="48"
   version="1.1"
   id="svg24"
   sodipodi:docname="glade.svg"
   inkscape:version="0.92.4 (5da689c313, 2019-01-14)">
  <metadata
     id="metadata30">
    <rdf:RDF>
      <cc:Work
         rdf:about="">
        <dc:format>image/svg+xml</dc:format>
        <dc:type
           rdf:resource="http://purl.org/dc/dcmitype/StillImage" />
        <dc:title></dc:title>
      </cc:Work>
    </rdf:RDF>
  </metadata>
  <defs
     id="defs28" />
  <sodipodi:namedview
     pagecolor="#ffffff"
     bordercolor="#666666"
     borderopacity="1"
     objecttolerance="10"
     gridtolerance="10"
     guidetolerance="10"
     inkscape:pageopacity="0"
     inkscape:pageshadow="2"
     inkscape:window-width="640"
     inkscape:window-height="480"
     id="namedview26"
     showgrid="false"
     inkscape:zoom="29.365243"
     inkscape:cx="25.325443"
     inkscape:cy="32"
     inkscape:current-layer="svg24"
     units="px" />
  <linearGradient
     id="_lgradient_12"
     x1="1.5627142"
     y1="0.54316336"
     x2="-0.052491475"
     y2="0.53895819"
     gradientTransform="matrix(39.961,0,0,23.32,1.039,20.68)"
     gradientUnits="userSpaceOnUse">
    <stop
       offset="34.94098066785295%"
       stop-opacity="1"
       style="stop-color:rgb(178,229,107)"
       id="stop2" />
    <stop
       offset="53.84922244785295%"
       stop-opacity="1"
       style="stop-color:rgb(194,233,100)"
       id="stop4" />
    <stop
       offset="90.40515655585295%"
       stop-opacity="1"
       style="stop-color:rgb(236,244,81)"
       id="stop6" />
    <stop
       offset="100%"
       stop-opacity="1"
       style="stop-color:rgb(250,247,75)"
       id="stop8" />
  </linearGradient>
  <linearGradient
     id="_lgradient_13"
     x1="1.5627142"
     y1="0.54316336"
     x2="-0.052491475"
     y2="0.53895819"
     gradientTransform="matrix(39,0,0,36,8,4)"
     gradientUnits="userSpaceOnUse">
    <stop
       offset="34.94098066785295%"
       stop-opacity="1"
       style="stop-color:rgb(178,229,107)"
       id="stop13" />
    <stop
       offset="53.84922244785295%"
       stop-opacity="1"
       style="stop-color:rgb(194,233,100)"
       id="stop15" />
    <stop
       offset="90.40515655585295%"
       stop-opacity="1"
       style="stop-color:rgb(236,244,81)"
       id="stop17" />
    <stop
       offset="100%"
       stop-opacity="1"
       style="stop-color:rgb(250,247,75)"
       id="stop19" />
  </linearGradient>
  <g
     id="g842"
     transform="matrix(0.78327309,0,0,0.78327309,-0.81383527,-0.79855416)">
    <path
       id="path11"
       d="M 41,20.68 V 44 H 1.95 C 0.846,44 0.729,43.557 1.689,43.012 Z m -4,6.64 V 40 H 16.05 Z"
       style="fill:url(#_lgradient_12);fill-rule:evenodd"
       inkscape:connector-curvature="0" />
    <path
       id="path22"
       d="m 12,31 v 0 c 0,1.104 -0.896,2 -2,2 v 0 C 8.896,33 8,32.104 8,31 V 31 13.09 C 8,12.538 8.337,11.795 8.753,11.432 L 16.497,4.658 C 16.913,4.295 17.698,4 18.25,4 H 43 c 2.208,0 4,1.792 4,4 v 30 0 c 0,1.104 -0.896,2 -2,2 v 0 c -1.104,0 -2,-0.896 -2,-2 V 38 10 C 43,8.896 42.104,8 41,8 H 18.75 L 12,13.91 Z"
       style="fill:url(#_lgradient_13)"
       inkscape:connector-curvature="0" />
  </g>
</svg>

<?xml version="1.0" encoding="UTF-8" standalone="no"?><!-- Generator: Gravit.io --><svg xmlns="http://www.w3.org/2000/svg" xmlns:xlink="http://www.w3.org/1999/xlink" style="isolation:isolate" viewBox="0 0 48 48" width="48pt" height="48pt"><linearGradient id="_lgradient_12" x1="1.5627141899860746" y1="0.543163345093069" x2="-0.052491476226457445" y2="0.5389581965419142" gradientTransform="matrix(39.961,0,0,23.32,1.039,20.68)" gradientUnits="userSpaceOnUse"><stop offset="34.94098066785295%" stop-opacity="1" style="stop-color:rgb(178,229,107)"/><stop offset="53.84922244785295%" stop-opacity="1" style="stop-color:rgb(194,233,100)"/><stop offset="90.40515655585295%" stop-opacity="1" style="stop-color:rgb(236,244,81)"/><stop offset="100%" stop-opacity="1" style="stop-color:rgb(250,247,75)"/></linearGradient><path d=" M 41 20.68 L 41 44 L 1.95 44 C 0.846 44 0.729 43.557 1.689 43.012 L 41 20.68 Z  M 37 27.32 L 37 40 L 16.05 40 L 37 27.32 Z " fill-rule="evenodd" fill="url(#_lgradient_12)"/><linearGradient id="_lgradient_13" x1="1.5627141899860746" y1="0.543163345093069" x2="-0.052491476226457445" y2="0.5389581965419142" gradientTransform="matrix(39,0,0,36,8,4)" gradientUnits="userSpaceOnUse"><stop offset="34.94098066785295%" stop-opacity="1" style="stop-color:rgb(178,229,107)"/><stop offset="53.84922244785295%" stop-opacity="1" style="stop-color:rgb(194,233,100)"/><stop offset="90.40515655585295%" stop-opacity="1" style="stop-color:rgb(236,244,81)"/><stop offset="100%" stop-opacity="1" style="stop-color:rgb(250,247,75)"/></linearGradient><path d=" M 12 31 L 12 31 C 12 32.104 11.104 33 10 33 L 10 33 C 8.896 33 8 32.104 8 31 L 8 31 L 8 13.09 C 8 12.538 8.337 11.795 8.753 11.432 L 16.497 4.658 C 16.913 4.295 17.698 4 18.25 4 L 43 4 C 45.208 4 47 5.792 47 8 L 47 38 L 47 38 C 47 39.104 46.104 40 45 40 L 45 40 C 43.896 40 43 39.104 43 38 L 43 38 L 43 10 C 43 8.896 42.104 8 41 8 L 18.75 8 L 12 13.91 L 12 31 Z " fill="url(#_lgradient_13)"/></svg>
